X:1
T:Nu Er Frelsens Dag Oprundet, 87.87.77.88
T:Nu Er Frelsens Dag Oprundet, 87.87.77.88
T:Ludvig Mathias Lindeman (1812–1887)
T:Public Domain Courtesy of the Cyber Hymnal™
C:Ludvig Mathias Lindeman (1812–1887)
Z:Public Domain
Z:Courtesy of the Cyber Hymnal™
%%score ( 1 2 ) ( 3 4 )
L:1/8
Q:1/4=110
M:4/4
K:Eb
V:1 treble 
V:2 treble 
V:3 bass 
V:4 bass 
V:1
 [B,G]3 [CE] [B,B]2 B,2 | [A,C]2 [A,D]2 [A,F]2 [G,E]2 | [CA]3 [B,G] [A,F]2 [G,E]2 | %3
 [B,D]2 [B,E]2 [B,F]3 z | [B,G]3 [CE] [EB]2 B,2 | [B,C]2 [A,D]2 [G,F]2 [G,E]2 | %6
 [A,A]3 [B,G] [CF]2 [CE]2 | [B,D]2 [G,E]2 [B,F]3 z | [CF]3 [B,G] [A,A]2 F2 | [Ec]2 [_DB]2 [CA]3 z | %10
 A3 [GB] [Ac]2 [GB]2 | [Ae]2 [Ac]2 [FB]3 z | [EB]3 [DA] [EG]2 [DF]2 | [CE]2 [CF]2 [B,D]2 [A,B,]2 | %14
 [G,F]2 [B,A]2 [DB]2 [Ee]2 | c4 ([GB]2 [FA]2) | ([EG]4 [DF]4) | [B,E]6 z2 |] %18
V:2
 x6 B,2 | x8 | x8 | x8 | x6 B,2 | x8 | x8 | x8 | x6 F2 | x8 | A3 x5 | x8 | x8 | x8 | x8 | %15
 (E3 A) x4 | x8 | x8 |] %18
V:3
 E,3 [C,G,] [D,F,]2 [E,G,]2 | [C,E,]2 [C,F,]2 [=B,,D,]2 [C,E,]2 | %2
 [A,,E,]3 [B,,E,] [=B,,D,]2 [C,E,]2 | [B,,F,]2 E,2 [B,,D,]3 z | E,3 [C,G,] [B,,G,]2 [A,,D,]2 | %5
 [G,,E,]2 [F,,F,]2 [E,,B,,]2 [E,,E,]2 | [C,E,]3 [B,,E,] [A,,E,]2 [=A,,_G,]2 | %7
 [B,,F,]2 [C,E,]2 [B,,D,]3 z | [A,,C,]3 [G,,=E,] [F,,F,]2 [_D,A,]2 | [E,A,]2 [E,G,]2 [A,,A,]3 z | %10
 [C,E]3 [B,,_D] [A,,C]2 [_D,E]2 | [C,E]2 [A,,E]2 [A,D]3 z | [G,B,]3 [F,B,] [E,B,]2 [B,,B,]2 | %13
 [B,,G,]2 [=A,,F,]2 [B,,F,]2 [B,,D,]2 | [C,E,]2 [B,,E,]2 [A,,F,]2 [G,,B,]2 | [A,,C]4 [A,,C]4 | %16
 (B,4 A,4) | [E,,G,]6 z2 |] %18
V:4
 E,3 x5 | x8 | x8 | x2 (G,,E,,) x4 | E,3 x5 | x8 | x8 | x8 | x8 | x8 | x8 | x8 | x8 | x8 | x8 | %15
 x8 | B,,8 | x8 |] %18

